packages/icons/svg/Navigation_Display_Blink_24px.svg

<svg xmlns="http://www.w3.org/2000/svg" viewBox="0 0 24 24"><circle cx="12" cy="12" r="1.5"/><path d="M12 8a1 1 0 001-1V3a1 1 0 10-2 0v4a1 1 0 001 1zM8 12a1 1 0 00-1-1H3a1 1 0 000 2h4a1 1 0 001-1zM6.34 4.93a1 1 0 00-1.41 1.41L7.79 9.2a1 1 0 001.41 0 1 1 0 000-1.41zM21 11h-4a1 1 0 000 2h4a1 1 0 000-2zM15.51 9.49a1 1 0 00.7-.29l2.86-2.86a1 1 0 10-1.41-1.41L14.8 7.79a1 1 0 000 1.41 1 1 0 00.71.29zM12 16a1 1 0 00-1 1v4a1 1 0 002 0v-4a1 1 0 00-1-1zM7.79 14.8l-2.86 2.86a1 1 0 000 1.41 1 1 0 001.41 0l2.86-2.86a1 1 0 00-1.41-1.41zM16.21 14.8a1 1 0 00-1.41 1.41l2.86 2.86a1 1 0 001.41 0 1 1 0 000-1.41z"/></svg>

<svg xmlns="http://www.w3.org/2000/svg" viewBox="0 0 24 24"><defs></defs><g id="Calque_5" ><circle  cx="12" cy="12" r="1.5"/><path  d="M12,8a1,1,0,0,0,1-1V3a1,1,0,1,0-2,0V7A1,1,0,0,0,12,8Z"/><path  d="M8,12a1,1,0,0,0-1-1H3a1,1,0,0,0,0,2H7A1,1,0,0,0,8,12Z"/><path  d="M6.34,4.93A1,1,0,0,0,4.93,6.34L7.79,9.2a1,1,0,0,0,1.41,0,1,1,0,0,0,0-1.41Z"/><path  d="M21,11H17a1,1,0,0,0,0,2h4a1,1,0,0,0,0-2Z"/><path  d="M15.51,9.49a1,1,0,0,0,.7-.29l2.86-2.86a1,1,0,1,0-1.41-1.41L14.8,7.79a1,1,0,0,0,0,1.41A1,1,0,0,0,15.51,9.49Z"/><path  d="M12,16a1,1,0,0,0-1,1v4a1,1,0,0,0,2,0V17A1,1,0,0,0,12,16Z"/><path  d="M7.79,14.8,4.93,17.66a1,1,0,0,0,0,1.41,1,1,0,0,0,1.41,0L9.2,16.21A1,1,0,0,0,7.79,14.8Z"/><path  d="M16.21,14.8a1,1,0,0,0-1.41,1.41l2.86,2.86a1,1,0,0,0,1.41,0,1,1,0,0,0,0-1.41Z"/></g></svg>
